mimes/128/application-x-ms-dos-executable.svg

<?xml version="1.0" encoding="UTF-8" standalone="no"?>
<svg
   xmlns:dc="http://purl.org/dc/elements/1.1/"
   xmlns:cc="http://creativecommons.org/ns#"
   xmlns:rdf="http://www.w3.org/1999/02/22-rdf-syntax-ns#"
   xmlns:svg="http://www.w3.org/2000/svg"
   xmlns="http://www.w3.org/2000/svg"
   xmlns:xlink="http://www.w3.org/1999/xlink"
   version="1.1"
   width="128"
   height="128"
   id="svg4163">
  <defs
     id="defs4165">
    <linearGradient
       x1="26.313066"
       y1="9.8269262"
       x2="26.313066"
       y2="23.605091"
       id="linearGradient3309"
       xlink:href="#linearGradient4260-8"
       gradientUnits="userSpaceOnUse"
       gradientTransform="matrix(2.596042,0,0,2.6203536,22.46595,-40.939032)" />
    <linearGradient
       id="linearGradient4260-8">
      <stop
         id="stop4262-1"
         style="stop-color:#000000;stop-opacity:1"
         offset="0" />
      <stop
         id="stop4264-8"
         style="stop-color:#000000;stop-opacity:0"
         offset="1" />
    </linearGradient>
    <linearGradient
       x1="26.313066"
       y1="9.8269262"
       x2="26.313066"
       y2="23.605091"
       id="linearGradient3312"
       xlink:href="#linearGradient4260-6"
       gradientUnits="userSpaceOnUse"
       gradientTransform="matrix(2.7200971,0,0,2.7455705,-2.6423689,-20.903072)" />
    <linearGradient
       id="linearGradient4260-6">
      <stop
         id="stop4262-7"
         style="stop-color:#000000;stop-opacity:1"
         offset="0" />
      <stop
         id="stop4264-90"
         style="stop-color:#000000;stop-opacity:0"
         offset="1" />
    </linearGradient>
    <linearGradient
       x1="26.313066"
       y1="9.8269262"
       x2="26.313066"
       y2="23.605091"
       id="linearGradient3315"
       xlink:href="#linearGradient4260-7"
       gradientUnits="userSpaceOnUse"
       gradientTransform="matrix(2.6952859,0,0,2.7205269,-24.103463,-42.764918)" />
    <linearGradient
       id="linearGradient4260-7">
      <stop
         id="stop4262-3"
         style="stop-color:#000000;stop-opacity:1"
         offset="0" />
      <stop
         id="stop4264-9"
         style="stop-color:#000000;stop-opacity:0"
         offset="1" />
    </linearGradient>
    <linearGradient
       x1="26.313066"
       y1="9.8269262"
       x2="26.313066"
       y2="23.605091"
       id="linearGradient3318"
       xlink:href="#linearGradient4260"
       gradientUnits="userSpaceOnUse"
       gradientTransform="matrix(2.6921445,0,0,2.6602735,-1.9575318,-63.498204)" />
    <linearGradient
       id="linearGradient4260">
      <stop
         id="stop4262"
         style="stop-color:#000000;stop-opacity:1"
         offset="0" />
      <stop
         id="stop4264"
         style="stop-color:#000000;stop-opacity:0"
         offset="1" />
    </linearGradient>
    <linearGradient
       x1="44.228275"
       y1="18.456329"
       x2="16.354654"
       y2="-9.4172926"
       id="linearGradient3321"
       xlink:href="#linearGradient3707-319-631-407-324-616-6-7"
       gradientUnits="userSpaceOnUse"
       gradientTransform="matrix(1.9506395,1.9691582,-1.9506395,1.9691582,-3.5862071,-65.607597)" />
    <linearGradient
       id="linearGradient3707-319-631-407-324-616-6-7">
      <stop
         id="stop3246-7-4"
         style="stop-color:#505050;stop-opacity:1"
         offset="0" />
      <stop
         id="stop3248-3-8"
         style="stop-color:#8e8e8e;stop-opacity:1"
         offset="1" />
    </linearGradient>
    <linearGradient
       x1="23.99999"
       y1="4.999989"
       x2="23.99999"
       y2="43"
       id="linearGradient3128-361"
       xlink:href="#linearGradient3924-776"
       gradientUnits="userSpaceOnUse"
       gradientTransform="matrix(2.7297298,0,0,2.7297298,-1.5135113,-62.513486)" />
    <linearGradient
       id="linearGradient3924-776">
      <stop
         id="stop3124"
         style="stop-color:#ffffff;stop-opacity:1"
         offset="0" />
      <stop
         id="stop3126"
         style="stop-color:#ffffff;stop-opacity:0.23529412"
         offset="0.06316455" />
      <stop
         id="stop3128"
         style="stop-color:#ffffff;stop-opacity:0.15686275"
         offset="0.95056331" />
      <stop
         id="stop3130"
         style="stop-color:#ffffff;stop-opacity:0.39215687"
         offset="1" />
    </linearGradient>
    <radialGradient
       cx="7.4956832"
       cy="8.4497671"
       r="19.99999"
       fx="7.4956832"
       fy="8.4497671"
       id="radialGradient3171-717"
       xlink:href="#linearGradient2867-449-88-871-390-598-476-591-434-148-57-177-80"
       gradientUnits="userSpaceOnUse"
       gradientTransform="matrix(5.1311087e-8,6.1720513,-6.5292943,-1.1371274e-7,119.17132,-93.22525)" />
    <linearGradient
       id="linearGradient2867-449-88-871-390-598-476-591-434-148-57-177-80">
      <stop
         id="stop3108"
         style="stop-color:#c7c7c7;stop-opacity:1"
         offset="0" />
      <stop
         id="stop3110"
         style="stop-color:#a6a6a6;stop-opacity:1"
         offset="0.26238" />
      <stop
         id="stop3112"
         style="stop-color:#7b7b7b;stop-opacity:1"
         offset="0.704952" />
      <stop
         id="stop3114"
         style="stop-color:#595959;stop-opacity:1"
         offset="1" />
    </linearGradient>
    <linearGradient
       x1="24"
       y1="44"
       x2="24"
       y2="3.8990016"
       id="linearGradient3173-975"
       xlink:href="#linearGradient3707-319-631-407-324-530"
       gradientUnits="userSpaceOnUse"
       gradientTransform="matrix(2.641026,0,0,2.641026,0.6153901,-60.384616)" />
    <linearGradient
       id="linearGradient3707-319-631-407-324-530">
      <stop
         id="stop3118"
         style="stop-color:#505050;stop-opacity:1"
         offset="0" />
      <stop
         id="stop3120"
         style="stop-color:#8e8e8e;stop-opacity:1"
         offset="1" />
    </linearGradient>
    <radialGradient
       cx="4.9929786"
       cy="43.5"
       r="2.5"
       fx="4.9929786"
       fy="43.5"
       id="radialGradient2455-84"
       xlink:href="#linearGradient3688-166-749-737"
       gradientUnits="userSpaceOnUse"
       gradientTransform="matrix(2.003784,0,0,1.4,27.98813,-17.4)" />
    <linearGradient
       id="linearGradient3688-166-749-737">
      <stop
         id="stop3088"
         style="stop-color:#181818;stop-opacity:1"
         offset="0" />
      <stop
         id="stop3090"
         style="stop-color:#181818;stop-opacity:0"
         offset="1" />
    </linearGradient>
    <radialGradient
       cx="4.9929786"
       cy="43.5"
       r="2.5"
       fx="4.9929786"
       fy="43.5"
       id="radialGradient2457-863"
       xlink:href="#linearGradient3688-464-309-255"
       gradientUnits="userSpaceOnUse"
       gradientTransform="matrix(2.003784,0,0,1.4,-20.01187,-104.4)" />
    <linearGradient
       id="linearGradient3688-464-309-255">
      <stop
         id="stop3094"
         style="stop-color:#181818;stop-opacity:1"
         offset="0" />
      <stop
         id="stop3096"
         style="stop-color:#181818;stop-opacity:0"
         offset="1" />
    </linearGradient>
    <linearGradient
       x1="25.058096"
       y1="47.027729"
       x2="25.058096"
       y2="39.999443"
       id="linearGradient2459-507"
       xlink:href="#linearGradient3702-501-757-486"
       gradientUnits="userSpaceOnUse" />
    <linearGradient
       id="linearGradient3702-501-757-486">
      <stop
         id="stop3100"
         style="stop-color:#181818;stop-opacity:0"
         offset="0" />
      <stop
         id="stop3102"
         style="stop-color:#181818;stop-opacity:1"
         offset="0.5" />
      <stop
         id="stop3104"
         style="stop-color:#181818;stop-opacity:0"
         offset="1" />
    </linearGradient>
  </defs>
  <metadata
     id="metadata4168">
    <rdf:RDF>
      <cc:Work
         rdf:about="">
        <dc:format>image/svg+xml</dc:format>
        <dc:type
           rdf:resource="http://purl.org/dc/dcmitype/StillImage" />
        <dc:title />
      </cc:Work>
    </rdf:RDF>
  </metadata>
  <g
     transform="translate(0,64)"
     id="layer1">
    <g
       transform="matrix(2.9499988,0,0,1.2222234,-6.8000012,1.555537)"
       id="g2036"
       style="display:inline">
      <g
         transform="matrix(1.052632,0,0,1.285713,-1.263158,-13.42854)"
         id="g3712"
         style="opacity:0.4">
        <rect
           width="5"
           height="7"
           x="38"
           y="40"
           id="rect2801"
           style="fill:url(#radialGradient2455-84);fill-opacity:1;stroke:none" />
        <rect
           width="5"
           height="7"
           x="-10"
           y="-47"
           transform="scale(-1,-1)"
           id="rect3696"
           style="fill:url(#radialGradient2457-863);fill-opacity:1;stroke:none" />
        <rect
           width="28"
           height="7.0000005"
           x="10"
           y="40"
           id="rect3700"
           style="fill:url(#linearGradient2459-507);fill-opacity:1;stroke:none" />
      </g>
    </g>
    <rect
       width="103"
       height="103"
       rx="6"
       ry="6"
       x="12.5"
       y="-48.5"
       id="rect5505-21"
       style="color:#000000;fill:url(#radialGradient3171-717);fill-opacity:1;fill-rule:nonzero;stroke:url(#linearGradient3173-975);stroke-width:1;stroke-linecap:round;stroke-linejoin:round;stroke-miterlimit:4;stroke-opacity:1;stroke-dasharray:none;stroke-dashoffset:0;marker:none;visibility:visible;display:inline;overflow:visible;enable-background:accumulate" />
    <rect
       width="101"
       height="101"
       rx="5"
       ry="5"
       x="13.5"
       y="-47.5"
       id="rect6741-7"
       style="opacity:0.5;fill:none;stroke:url(#linearGradient3128-361);stroke-width:0.99999994;stroke-linecap:round;stroke-linejoin:round;stroke-miterlimit:4;stroke-opacity:1;stroke-dasharray:none;stroke-dashoffset:0" />
    <path
       d="M 64.000008,8.04746 81.931046,26.14873 64.000011,44.25 46.06897,26.148733 z M 41.931036,-14.231025 59.862074,3.870245 41.931033,21.97152 23.999998,3.870248 z M 86.068972,-13.471531 104,4.25 86.068972,21.971531 68.137932,4.250008 z M 64.000006,-35.750015 81.931032,-18.028484 64.000006,-0.306953 46.068968,-18.028476 z"
       id="rect4120-5-3"
       style="opacity:0.4;color:#000000;fill:#ffffff;fill-opacity:1;fill-rule:nonzero;stroke:none;stroke-width:1.70000005;marker:none;visibility:visible;display:inline;overflow:visible;enable-background:accumulate" />
    <path
       d="M 64.000008,6.797467 81.931045,24.898733 64.000008,43.000001 46.068974,24.898736 z M 41.931037,-15.481013 59.862074,2.620255 41.931037,20.721521 24,2.620255 z M 86.068971,-14.72152 104,3.000008 86.068971,20.721535 68.137934,3.000016 z M 64.000005,-37 81.931034,-19.278473 64.000005,-1.556945 46.068968,-19.278464 z"
       id="rect4120-5"
       style="color:#000000;fill:url(#linearGradient3321);fill-opacity:1;fill-rule:nonzero;stroke:none;stroke-width:1.70000005;marker:none;visibility:visible;display:inline;overflow:visible;enable-background:accumulate" />
    <path
       d="M 64.000009,-36.169938 81.498941,-19.24091 64.000009,-2.311896 46.50107,-19.240905 z"
       id="rect4120-5-5"
       style="opacity:0.1;color:#000000;fill:none;stroke:url(#linearGradient3318);stroke-width:1;stroke-miterlimit:4;stroke-opacity:1;stroke-dasharray:none;marker:none;visibility:visible;display:inline;overflow:visible;enable-background:accumulate" />
    <path
       d="M 41.931037,-14.817688 59.450388,2.494768 41.931037,19.807217 24.41168,2.494774 z"
       id="rect4120-5-5-1"
       style="opacity:0.1;color:#000000;fill:none;stroke:url(#linearGradient3315);stroke-width:0.99999976;stroke-miterlimit:4;stroke-opacity:1;stroke-dasharray:none;marker:none;visibility:visible;display:inline;overflow:visible;enable-background:accumulate" />
    <path
       d="M 64.000007,7.301427 81.68063,24.773247 64.000007,42.245064 46.319377,24.773253 z"
       id="rect4120-5-5-9"
       style="opacity:0.1;color:#000000;fill:none;stroke:url(#linearGradient3312);stroke-width:0.99999988;stroke-miterlimit:4;stroke-opacity:1;stroke-dasharray:none;marker:none;visibility:visible;display:inline;overflow:visible;enable-background:accumulate" />
    <path
       d="M 86.068974,-14.020855 102.94324,2.654134 86.068974,19.329116 69.194703,2.65414 z"
       id="rect4120-5-5-2"
       style="opacity:0.1;color:#000000;fill:none;stroke:url(#linearGradient3309);stroke-width:0.99999988;stroke-miterlimit:4;stroke-opacity:1;stroke-dasharray:none;marker:none;visibility:visible;display:inline;overflow:visible;enable-background:accumulate" />
  </g>
</svg>

<svg xmlns="http://www.w3.org/2000/svg" xmlns:xlink="http://www.w3.org/1999/xlink" viewBox="0 0 128 128"><defs><linearGradient x1="26.313" y1="9.827" x2="26.313" y2="23.605" id="v" xlink:href="#a" gradientUnits="userSpaceOnUse" gradientTransform="matrix(2.59604 0 0 2.62035 22.466 -40.94)"/><linearGradient id="a"><stop offset="0"/><stop offset="1" stop-opacity="0"/></linearGradient><linearGradient x1="26.313" y1="9.827" x2="26.313" y2="23.605" id="u" xlink:href="#b" gradientUnits="userSpaceOnUse" gradientTransform="matrix(2.7201 0 0 2.74557 -2.642 -20.903)"/><linearGradient id="b"><stop offset="0"/><stop offset="1" stop-opacity="0"/></linearGradient><linearGradient x1="26.313" y1="9.827" x2="26.313" y2="23.605" id="t" xlink:href="#c" gradientUnits="userSpaceOnUse" gradientTransform="matrix(2.6953 0 0 2.72053 -24.103 -42.765)"/><linearGradient id="c"><stop offset="0"/><stop offset="1" stop-opacity="0"/></linearGradient><linearGradient x1="26.313" y1="9.827" x2="26.313" y2="23.605" id="s" xlink:href="#d" gradientUnits="userSpaceOnUse" gradientTransform="matrix(2.69214 0 0 2.66027 -1.958 -63.498)"/><linearGradient id="d"><stop offset="0"/><stop offset="1" stop-opacity="0"/></linearGradient><linearGradient x1="44.228" y1="18.456" x2="16.355" y2="-9.417" id="r" xlink:href="#e" gradientUnits="userSpaceOnUse" gradientTransform="matrix(1.95064 1.96915 -1.95064 1.96915 -3.59 -65.608)"/><linearGradient id="e"><stop offset="0" stop-color="#505050"/><stop offset="1" stop-color="#8e8e8e"/></linearGradient><linearGradient x1="24" y1="5" x2="24" y2="43" id="q" xlink:href="#f" gradientUnits="userSpaceOnUse" gradientTransform="translate(-1.514 -62.513) scale(2.72973)"/><linearGradient id="f"><stop offset="0" stop-color="#fff"/><stop offset=".063" stop-color="#fff" stop-opacity=".235"/><stop offset=".951" stop-color="#fff" stop-opacity=".157"/><stop offset="1" stop-color="#fff" stop-opacity=".392"/></linearGradient><radialGradient cx="7.496" cy="8.45" r="20" fx="7.496" fy="8.45" id="o" xlink:href="#g" gradientUnits="userSpaceOnUse" gradientTransform="matrix(0 6.17205 -6.5293 0 119.17 -93.225)"/><linearGradient id="g"><stop offset="0" stop-color="#c7c7c7"/><stop offset=".262" stop-color="#a6a6a6"/><stop offset=".705" stop-color="#7b7b7b"/><stop offset="1" stop-color="#595959"/></linearGradient><linearGradient x1="24" y1="44" x2="24" y2="3.899" id="p" xlink:href="#h" gradientUnits="userSpaceOnUse" gradientTransform="translate(.615 -60.385) scale(2.64103)"/><linearGradient id="h"><stop offset="0" stop-color="#505050"/><stop offset="1" stop-color="#8e8e8e"/></linearGradient><radialGradient cx="4.993" cy="43.5" r="2.5" fx="4.993" fy="43.5" id="l" xlink:href="#i" gradientUnits="userSpaceOnUse" gradientTransform="matrix(2.00378 0 0 1.4 27.988 -17.4)"/><linearGradient id="i"><stop offset="0" stop-color="#181818"/><stop offset="1" stop-color="#181818" stop-opacity="0"/></linearGradient><radialGradient cx="4.993" cy="43.5" r="2.5" fx="4.993" fy="43.5" id="m" xlink:href="#j" gradientUnits="userSpaceOnUse" gradientTransform="matrix(2.00378 0 0 1.4 -20.012 -104.4)"/><linearGradient id="j"><stop offset="0" stop-color="#181818"/><stop offset="1" stop-color="#181818" stop-opacity="0"/></linearGradient><linearGradient x1="25.058" y1="47.028" x2="25.058" y2="39.999" id="n" xlink:href="#k" gradientUnits="userSpaceOnUse"/><linearGradient id="k"><stop offset="0" stop-color="#181818" stop-opacity="0"/><stop offset=".5" stop-color="#181818"/><stop offset="1" stop-color="#181818" stop-opacity="0"/></linearGradient></defs><g transform="translate(0 64)"><g opacity=".4"><path fill="url(#l)" d="M38 40h5v7h-5z" transform="matrix(3.10526 0 0 1.57143 -10.526 -14.857)"/><path transform="matrix(-3.10526 0 0 -1.57143 -10.526 -14.857)" fill="url(#m)" d="M-10-47h5v7h-5z"/><path fill="url(#n)" d="M10 40h28v7H10z" transform="matrix(3.10526 0 0 1.57143 -10.526 -14.857)"/></g><rect width="103" height="103" rx="6" ry="6" x="12.5" y="-48.5" color="#000" fill="url(#o)" stroke="url(#p)" stroke-linecap="round" stroke-linejoin="round" overflow="visible"/><rect width="101" height="101" rx="5" ry="5" x="13.5" y="-47.5" opacity=".5" fill="none" stroke="url(#q)" stroke-linecap="round" stroke-linejoin="round"/><path d="M64 8.047L81.93 26.15 64 44.25l-17.93-18.1zM41.93-14.23l17.932 18.1-17.93 18.102L24 3.87zm44.14.758L104 4.25 86.07 21.972 68.137 4.25zM64-35.75l17.93 17.722L64-.308l-17.93-17.72z" opacity=".4" color="#000" fill="#fff" overflow="visible"/><path d="M64 6.797L81.93 24.9 64 43 46.07 24.9zM41.93-15.48l17.932 18.1-17.93 18.102L24 2.62zm44.14.758L104 3 86.07 20.722 68.137 3zM64-37l17.93 17.722L64-1.558l-17.93-17.72z" color="#000" fill="url(#r)" overflow="visible"/><path d="M64-36.17l17.5 16.93L64-2.313l-17.5-16.93z" opacity=".1" color="#000" fill="none" stroke="url(#s)" overflow="visible"/><path d="M41.93-14.818L59.45 2.495 41.93 19.807 24.413 2.495z" opacity=".1" color="#000" fill="none" stroke="url(#t)" overflow="visible"/><path d="M64 7.3l17.68 17.473L64 42.245 46.32 24.773z" opacity=".1" color="#000" fill="none" stroke="url(#u)" overflow="visible"/><path d="M86.07-14.02l16.873 16.674L86.07 19.33 69.194 2.653z" opacity=".1" color="#000" fill="none" stroke="url(#v)" overflow="visible"/></g></svg>
